X:1
T:Callam's Frolics
M:C
L:1/8
N:"Slow"
S:MacDonald - Second Collection of Strathspey Reels (1789)
Z:AK/Fiddler's Companion
K:G Minor
"tr"G>FDG FD C2 | "tr"B>CDF G2D2 | "tr"B>Cdg fdc>d | {c}BA/G/ {B}AG/^F/ {F}G2G,2 :|
g>agd Bd "tr"g2 | facf "tr"A2F2 | Bcdc Bcd2 | Gg (b/a/).g/.^f/ "tr"g2 gd | gdgb dg Bd | Acfc A2 FA |
Bcdc Bd gd/c/ | {c}BA/G/ {B}AG/^F/ G2 G=F/E/ | DC/B,/ A,D (G,2G,2) ||

